X: 21233
T: Keel Row, The
R: polka
M: 2/4
K: Gmajor
|:d/c/|Bd GA/B/|ce E>G|FA DE/F/|G/A/B/c/d/e/f/g/|Bd GA/B/|ce E>G|FA DE/F/|G3:|
d|Bd g>f|ed cB|cB AG|FA A>d|Bd gf|ed cB|ce dF|
G3 d|Bd g>f|ed cB|c/d/B/c/ A/B/G/A/ FA A>c|Bd ^ce|df eg|fb a>^c|d3||
|:c|(3Bdg (3 GBd|(3cea (3ABc|(3Bdg (3GBd|(3FAd D>d|(3Bdg (3GBd|(3cea (3ABc|(3Bed (3cBA|G3:|
d|(3BGB (3 dBd|(3gdc (3BAG|(3FDF (3AFA|(3dAG (3FED|(3BGB (3dBd|(3gdc (3BAG|(3Fed (3cBA|
G3 d|(3BGB (3 dBd|(3gdc (3BAG|(3FDF (3AFA|(3dAG (3FED|(3EFG (3FGA|(3GAB (3ABc|(3Bcd (3^cde|
d6|:B2|BGBd g4|cAce a4|BGBd gdBd|cAFA DEAc|
BGBd gdBd|cAce agfe|dgdB AedF|G6:|
c|Bd de/f/|g/f/g/a/ b>B|cA/B/ c/B/A/G/|F/G/A/B/ A>c|B/G/A/B/ c/d/e/f/|
g/f/e/d/ c/B/A/G/|Fe dF|G3 c|Bd d e/f/|g/f/g/a/ b>B|
cA/B/ c/B/A/G/|F/G/A/B/ A>c|Bd ^ce|df eg|fb g^c|d3||
^c/=c/|B2 G>B|c2 A>c|B2 G>B|A>F D>c|B2 G>B|c2 A>c|B>G A>F|G3||

